X:1
T:Title
L:1/8
Q:1/4=140
M:12/8
K:Eb
V:1 treble nm="Grand Piano"
V:1
 z2 G G2 G G3 F2 E | A3- A2 G F6 | z2 G G2 G =B3 G2 F | E3 F3 G6 | z2 C C2 D E3 D2 C | %5
 F3- F2 E D6 | z2 G G2 G e3 d2 =B | d6 c6 | z2 B B2 B c3 A2 B | A6 G6 | z2 C C2 D E3 G2 G | %11
 F3 E3 C6 | z2 C C2 E G6- | G2 G G2 G A3 G3 | F3- F2 E D6 | z2 D D2 E F6- | F2 F G2 A G3 F3 | %17
 E3 F3 G6 | z2 e d2 c A6- | A2 F G2 A =B3 A2 G | =B6 c6 | z2 e d2 c A6- | A2 F G2 A =B3 A2 G | %23
 =B6 c6 |] %24

